app/assets/images/icons/active/sign-in.svg

<?xml version="1.0" encoding="UTF-8" standalone="no"?>
<svg width="32px" height="232px" viewBox="0 0 32 232" version="1.1" xmlns="http://www.w3.org/2000/svg" xmlns:xlink="http://www.w3.org/1999/xlink" xmlns:sketch="http://www.bohemiancoding.com/sketch/ns">
    <title>sign-in</title>
    <description>Created with Sketch (http://www.bohemiancoding.com/sketch)</description>
    <defs></defs>
    <g id="Functions" stroke="none" stroke-width="1" fill="none" fill-rule="evenodd" sketch:type="MSPage">
        <path d="M16.6255005,125.19227 L16.6255005,126.033128 L19.5435195,128.922053 L19.5435195,127.886327 L27.0849315,126.697629 L27.0849315,146.191296 L19.5435195,143.82267 L19.5435195,142.682689 L16.6255005,145.573563 L16.6255005,146.01494 L30,150 L30,123 L16.6255005,125.19227 Z M22.3612223,135.85255 C22.3612223,135.331276 22.1655076,134.808055 21.7603091,134.408574 L14.400843,127.115622 C13.602248,126.324456 12.3050228,126.324456 11.5083948,127.115622 C10.7088163,127.905814 10.7088163,129.191945 11.5083948,129.97824 L15.3341763,133.772329 L4.0456621,133.772329 C2.91759747,133.772329 2,134.676518 2,135.797986 C2,136.920429 2.91759747,137.824618 4.0456621,137.824618 L15.4462943,137.824618 L11.5083948,141.726859 C10.7088163,142.513154 10.7088163,143.799285 11.5083948,144.589477 C12.3050228,145.379669 13.602248,145.379669 14.400843,144.589477 L21.7603091,137.297499 C22.1655076,136.899968 22.3612223,136.375771 22.3612223,135.85255 Z M22.3612223,135.85255" id="sign-in--lp-blue" fill="#206FAC" sketch:type="MSShapeGroup"></path>
        <path d="M16.6255005,85.1922702 L16.6255005,86.0331276 L19.5435195,88.9220526 L19.5435195,87.8863267 L27.0849315,86.6976291 L27.0849315,106.191296 L19.5435195,103.82267 L19.5435195,102.682689 L16.6255005,105.573563 L16.6255005,106.01494 L30,110 L30,83 L16.6255005,85.1922702 Z M22.3612223,95.8525495 C22.3612223,95.3312764 22.1655076,94.8080546 21.7603091,94.4085742 L14.400843,87.115622 C13.602248,86.324456 12.3050228,86.324456 11.5083948,87.115622 C10.7088163,87.9058136 10.7088163,89.1919454 11.5083948,89.9782397 L15.3341763,93.7723287 L4.0456621,93.7723287 C2.91759747,93.7723287 2,94.6765184 2,95.7979864 C2,96.9204287 2.91759747,97.8246184 4.0456621,97.8246184 L15.4462943,97.8246184 L11.5083948,101.726859 C10.7088163,102.513154 10.7088163,103.799285 11.5083948,104.589477 C12.3050228,105.379669 13.602248,105.379669 14.400843,104.589477 L21.7603091,97.2974992 C22.1655076,96.8999675 22.3612223,96.3757714 22.3612223,95.8525495 Z M22.3612223,95.8525495" id="sign-in--white" fill="#FFFFFF" sketch:type="MSShapeGroup"></path>
        <path d="M16.6255005,45.1922702 L16.6255005,46.0331276 L19.5435195,48.9220526 L19.5435195,47.8863267 L27.0849315,46.6976291 L27.0849315,66.1912959 L19.5435195,63.8226697 L19.5435195,62.6826892 L16.6255005,65.5735628 L16.6255005,66.0149399 L30,70 L30,43 L16.6255005,45.1922702 Z M22.3612223,55.8525495 C22.3612223,55.3312764 22.1655076,54.8080546 21.7603091,54.4085742 L14.400843,47.115622 C13.602248,46.324456 12.3050228,46.324456 11.5083948,47.115622 C10.7088163,47.9058136 10.7088163,49.1919454 11.5083948,49.9782397 L15.3341763,53.7723287 L4.0456621,53.7723287 C2.91759747,53.7723287 2,54.6765184 2,55.7979864 C2,56.9204287 2.91759747,57.8246184 4.0456621,57.8246184 L15.4462943,57.8246184 L11.5083948,61.7268594 C10.7088163,62.5131536 10.7088163,63.7992855 11.5083948,64.5894771 C12.3050228,65.3796687 13.602248,65.3796687 14.400843,64.5894771 L21.7603091,57.2974992 C22.1655076,56.8999675 22.3612223,56.3757714 22.3612223,55.8525495 Z M22.3612223,55.8525495" id="sign-in--body-grey" fill="#67737B" sketch:type="MSShapeGroup"></path>
        <path d="M16.6255005,5.19227022 L16.6255005,6.03312764 L19.5435195,8.92205261 L19.5435195,7.88632673 L27.0849315,6.6976291 L27.0849315,26.1912959 L19.5435195,23.8226697 L19.5435195,22.6826892 L16.6255005,25.5735628 L16.6255005,26.0149399 L30,30 L30,3 L16.6255005,5.19227022 Z M22.3612223,15.8525495 C22.3612223,15.3312764 22.1655076,14.8080546 21.7603091,14.4085742 L14.400843,7.11562196 C13.602248,6.32445599 12.3050228,6.32445599 11.5083948,7.11562196 C10.7088163,7.90581358 10.7088163,9.19194544 11.5083948,9.97823969 L15.3341763,13.7723287 L4.0456621,13.7723287 C2.91759747,13.7723287 2,14.6765184 2,15.7979864 C2,16.9204287 2.91759747,17.8246184 4.0456621,17.8246184 L15.4462943,17.8246184 L11.5083948,21.7268594 C10.7088163,22.5131536 10.7088163,23.7992855 11.5083948,24.5894771 C12.3050228,25.3796687 13.602248,25.3796687 14.400843,24.5894771 L21.7603091,17.2974992 C22.1655076,16.8999675 22.3612223,16.3757714 22.3612223,15.8525495 Z M22.3612223,15.8525495" id="sign-in--title-grey" fill="#3A434E" sketch:type="MSShapeGroup"></path>
    </g>
</svg>

<svg width="32" height="232" viewBox="0 0 32 232" xmlns="http://www.w3.org/2000/svg" xmlns:sketch="http://www.bohemiancoding.com/sketch/ns"><title>sign-in</title><g sketch:type="MSPage" fill="none"><path d="M16.626 125.192v.841l2.918 2.889v-1.036l7.541-1.189v19.494l-7.541-2.369v-1.14l-2.918 2.891v.441l13.374 3.985v-27l-13.374 2.192zm5.736 10.66c0-.521-.196-1.044-.601-1.444l-7.359-7.293c-.799-.791-2.096-.791-2.892 0-.8.79-.8 2.076 0 2.863l3.826 3.794h-11.289c-1.128 0-2.046.904-2.046 2.026 0 1.122.918 2.027 2.046 2.027h11.401l-3.938 3.902c-.8.786-.8 2.072 0 2.863.797.79 2.094.79 2.892 0l7.359-7.292c.405-.398.601-.922.601-1.445zm0 0" fill="#206FAC" sketch:type="MSShapeGroup"/><path d="M16.626 85.192v.841l2.918 2.889v-1.036l7.541-1.189v19.494l-7.541-2.369v-1.14l-2.918 2.891v.441l13.374 3.985v-27l-13.374 2.192zm5.736 10.66c0-.521-.196-1.044-.601-1.444l-7.359-7.293c-.799-.791-2.096-.791-2.892 0-.8.79-.8 2.076 0 2.863l3.826 3.794h-11.289c-1.128 0-2.046.904-2.046 2.026 0 1.122.918 2.027 2.046 2.027h11.401l-3.938 3.902c-.8.786-.8 2.072 0 2.863.797.79 2.094.79 2.892 0l7.359-7.292c.405-.398.601-.922.601-1.445zm0 0" fill="#fff" sketch:type="MSShapeGroup"/><path d="M16.626 45.192v.841l2.918 2.889v-1.036l7.541-1.189v19.494l-7.541-2.369v-1.14l-2.918 2.891v.441l13.374 3.985v-27l-13.374 2.192zm5.736 10.66c0-.521-.196-1.044-.601-1.444l-7.359-7.293c-.799-.791-2.096-.791-2.892 0-.8.79-.8 2.076 0 2.863l3.826 3.794h-11.289c-1.128 0-2.046.904-2.046 2.026 0 1.122.918 2.027 2.046 2.027h11.401l-3.938 3.902c-.8.786-.8 2.072 0 2.863.797.79 2.094.79 2.892 0l7.359-7.292c.405-.398.601-.922.601-1.445zm0 0" fill="#67737B" sketch:type="MSShapeGroup"/><path d="M16.626 5.192v.841l2.918 2.889v-1.036l7.541-1.189v19.494l-7.541-2.369v-1.14l-2.918 2.891v.441l13.374 3.985v-27l-13.374 2.192zm5.736 10.66c0-.521-.196-1.044-.601-1.444l-7.359-7.293c-.799-.791-2.096-.791-2.892 0-.8.79-.8 2.076 0 2.863l3.826 3.794h-11.289c-1.128 0-2.046.904-2.046 2.026 0 1.122.918 2.027 2.046 2.027h11.401l-3.938 3.902c-.8.786-.8 2.072 0 2.863.797.79 2.094.79 2.892 0l7.359-7.292c.405-.398.601-.922.601-1.445zm0 0" fill="#3A434E" sketch:type="MSShapeGroup"/></g></svg>
